public/images/hashed/5be5739f8486d6db1dcaf25ee61ea27d.svg

<svg xmlns="http://www.w3.org/2000/svg" width="80" height="80"><defs><linearGradient id="a" x1="0%" x2="100%" y1="100%" y2="0%"><stop offset="0%" stop-color="#B0084D"/><stop offset="100%" stop-color="#FF4F8B"/></linearGradient></defs><g fill="none" fill-rule="evenodd"><path fill="url(#a)" d="M0 0h80v80H0z"/><path fill="#FFF" d="M39.976 39.673a5.41 5.41 0 0 1 5.403 5.403 5.41 5.41 0 0 1-5.403 5.403 5.41 5.41 0 0 1-5.403-5.403 5.41 5.41 0 0 1 5.403-5.403Zm0 12.806c4.082 0 7.403-3.321 7.403-7.403 0-4.082-3.321-7.403-7.403-7.403-4.082 0-7.403 3.321-7.403 7.403 0 4.082 3.321 7.403 7.403 7.403Zm-1.622-4.866-1.829-1.83 1.414-1.414 1.122 1.122 2.952-2.951 1.414 1.414-3.659 3.659a1.002 1.002 0 0 1-1.414 0ZM26 32h28v-2H26v2Zm0-3h28v-2H26v2Zm0-3h28v-2H26v2Zm0-7h11v-2H26v2Zm3.949 26.101c0-.737.523-1.376 1.244-1.52a.998.998 0 0 0 .768-.714 8.333 8.333 0 0 1 .787-1.896.998.998 0 0 0-.015-1.019 1.52 1.52 0 0 1-.234-.802c0-.855.696-1.551 1.55-1.551.281 0 .55.079.802.234.313.19.703.196 1.02.015a8.234 8.234 0 0 1 1.896-.786 1 1 0 0 0 .714-.768A1.553 1.553 0 0 1 40 35.048c.737 0 1.375.524 1.52 1.246a1 1 0 0 0 .714.768 8.252 8.252 0 0 1 1.896.786c.316.181.706.175 1.02-.015.252-.155.521-.234.802-.234.854 0 1.549.696 1.549 1.551 0 .279-.078.549-.233.802a1 1 0 0 0-.016 1.019c.337.589.602 1.227.787 1.896a1 1 0 0 0 .769.714 1.553 1.553 0 0 1 1.244 1.52c0 .736-.523 1.375-1.244 1.519a1 1 0 0 0-.769.714 8.244 8.244 0 0 1-.787 1.896c-.181.318-.174.708.016 1.02.155.252.233.522.233.801 0 .855-.695 1.551-1.549 1.551a1.51 1.51 0 0 1-.802-.233.998.998 0 0 0-1.02-.016 8.252 8.252 0 0 1-1.896.786 1 1 0 0 0-.714.768A1.553 1.553 0 0 1 40 55.152a1.552 1.552 0 0 1-1.519-1.245 1 1 0 0 0-.714-.768 8.234 8.234 0 0 1-1.896-.786 1.002 1.002 0 0 0-1.02.016 1.51 1.51 0 0 1-.802.233c-.854 0-1.55-.696-1.55-1.551 0-.279.079-.549.234-.801.19-.312.197-.702.015-1.02a8.333 8.333 0 0 1-.787-1.896.998.998 0 0 0-.768-.714 1.552 1.552 0 0 1-1.244-1.519Zm4.1 9.501c.448 0 .891-.088 1.308-.256.432.216.88.403 1.341.557A3.56 3.56 0 0 0 40 57.152a3.56 3.56 0 0 0 3.303-2.249c.461-.154.909-.341 1.341-.557.417.168.86.256 1.308.256a3.554 3.554 0 0 0 3.549-3.551c0-.446-.087-.889-.255-1.307.215-.431.402-.879.557-1.341a3.56 3.56 0 0 0 2.249-3.302 3.56 3.56 0 0 0-2.249-3.303c-.155-.462-.342-.91-.557-1.341.168-.418.255-.861.255-1.307a3.554 3.554 0 0 0-3.549-3.551c-.447 0-.891.088-1.308.256-.432-.216-.88-.403-1.341-.557A3.56 3.56 0 0 0 40 33.048a3.56 3.56 0 0 0-3.302 2.25c-.461.154-.909.341-1.341.557a3.502 3.502 0 0 0-1.308-.256 3.555 3.555 0 0 0-3.55 3.551c0 .446.088.889.256 1.307-.216.431-.402.879-.557 1.341a3.56 3.56 0 0 0-2.249 3.303 3.56 3.56 0 0 0 2.249 3.302c.155.462.341.91.557 1.341a3.505 3.505 0 0 0-.256 1.307 3.555 3.555 0 0 0 3.55 3.551ZM44 56h2v10a1 1 0 0 1-1.625.78L40 63.28l-4.375 3.5A.999.999 0 0 1 34 66V56h2v7.919l3.375-2.7a1.001 1.001 0 0 1 1.25 0l3.375 2.7V56Zm8-39.586L55.586 20H52v-3.586Zm6.707 3.879-7-7A.996.996 0 0 0 51 13H22a1 1 0 0 0-1 1v46a1 1 0 0 0 1 1h10v-2h-9V15h27v6a1 1 0 0 0 1 1h6v37h-9v2h10a1 1 0 0 0 1-1V21a.997.997 0 0 0-.293-.707Z"/></g></svg>

<?xml version="1.0" encoding="UTF-8"?>
<svg width="80px" height="80px" viewBox="0 0 80 80" version="1.1" xmlns="http://www.w3.org/2000/svg" xmlns:xlink="http://www.w3.org/1999/xlink">
    <!-- Generator: Sketch 64 (93537) - https://sketch.com -->
    <title>Icon-Architecture/64/Arch_AWS-License-Manager_64</title>
    <desc>Created with Sketch.</desc>
    <defs>
        <linearGradient x1="0%" y1="100%" x2="100%" y2="0%" id="linearGradient-1">
            <stop stop-color="#B0084D" offset="0%"></stop>
            <stop stop-color="#FF4F8B" offset="100%"></stop>
        </linearGradient>
    </defs>
    <g id="Icon-Architecture/64/Arch_AWS-License-Manager_64" stroke="none" stroke-width="1" fill="none" fill-rule="evenodd">
        <g id="Icon-Architecture-BG/64/Management-Governance" fill="url(#linearGradient-1)">
            <rect id="Rectangle" x="0" y="0" width="80" height="80"></rect>
        </g>
        <path d="M39.976,39.673 C42.955,39.673 45.379,42.097 45.379,45.076 C45.379,48.055 42.955,50.479 39.976,50.479 C36.997,50.479 34.573,48.055 34.573,45.076 C34.573,42.097 36.997,39.673 39.976,39.673 L39.976,39.673 Z M39.976,52.479 C44.058,52.479 47.379,49.158 47.379,45.076 C47.379,40.994 44.058,37.673 39.976,37.673 C35.894,37.673 32.573,40.994 32.573,45.076 C32.573,49.158 35.894,52.479 39.976,52.479 L39.976,52.479 Z M38.354,47.613 L36.525,45.783 L37.939,44.369 L39.061,45.491 L42.013,42.54 L43.427,43.954 L39.768,47.613 C39.58,47.8 39.327,47.906 39.061,47.906 C38.795,47.906 38.541,47.8 38.354,47.613 L38.354,47.613 Z M26,32 L54,32 L54,30 L26,30 L26,32 Z M26,29 L54,29 L54,27 L26,27 L26,29 Z M26,26 L54,26 L54,24 L26,24 L26,26 Z M26,19 L37,19 L37,17 L26,17 L26,19 Z M29.949,45.101 C29.949,44.364 30.472,43.725 31.193,43.581 C31.564,43.507 31.861,43.231 31.961,42.867 C32.147,42.198 32.412,41.56 32.748,40.971 C32.93,40.654 32.924,40.264 32.733,39.952 C32.578,39.699 32.499,39.429 32.499,39.15 C32.499,38.295 33.195,37.599 34.049,37.599 C34.33,37.599 34.599,37.678 34.851,37.833 C35.164,38.023 35.554,38.029 35.871,37.848 C36.461,37.511 37.099,37.246 37.767,37.062 C38.131,36.961 38.407,36.664 38.481,36.294 C38.625,35.572 39.264,35.048 40,35.048 C40.737,35.048 41.375,35.572 41.52,36.294 C41.594,36.664 41.87,36.961 42.234,37.062 C42.902,37.246 43.539,37.511 44.13,37.848 C44.446,38.029 44.836,38.023 45.15,37.833 C45.402,37.678 45.671,37.599 45.952,37.599 C46.806,37.599 47.501,38.295 47.501,39.15 C47.501,39.429 47.423,39.699 47.268,39.952 C47.077,40.264 47.071,40.654 47.252,40.971 C47.589,41.56 47.854,42.198 48.039,42.867 C48.14,43.231 48.437,43.507 48.808,43.581 C49.529,43.725 50.052,44.364 50.052,45.101 C50.052,45.837 49.529,46.476 48.808,46.62 C48.437,46.694 48.14,46.97 48.039,47.334 C47.854,48.003 47.589,48.641 47.252,49.23 C47.071,49.548 47.078,49.938 47.268,50.25 C47.423,50.502 47.501,50.772 47.501,51.051 C47.501,51.906 46.806,52.602 45.952,52.602 C45.671,52.602 45.402,52.524 45.15,52.369 C44.838,52.177 44.446,52.171 44.13,52.353 C43.539,52.69 42.902,52.955 42.234,53.139 C41.87,53.24 41.594,53.537 41.52,53.907 C41.375,54.629 40.737,55.152 40,55.152 C39.264,55.152 38.625,54.629 38.481,53.907 C38.407,53.537 38.131,53.24 37.767,53.139 C37.099,52.955 36.461,52.69 35.871,52.353 C35.717,52.265 35.545,52.221 35.374,52.221 C35.193,52.221 35.011,52.27 34.851,52.369 C34.599,52.524 34.33,52.602 34.049,52.602 C33.195,52.602 32.499,51.906 32.499,51.051 C32.499,50.772 32.578,50.502 32.733,50.25 C32.923,49.938 32.93,49.548 32.748,49.23 C32.412,48.641 32.147,48.003 31.961,47.334 C31.861,46.97 31.564,46.694 31.193,46.62 C30.472,46.476 29.949,45.837 29.949,45.101 L29.949,45.101 Z M34.049,54.602 C34.497,54.602 34.94,54.514 35.357,54.346 C35.789,54.562 36.237,54.749 36.698,54.903 C37.224,56.237 38.527,57.152 40,57.152 C41.474,57.152 42.777,56.237 43.303,54.903 C43.764,54.749 44.212,54.562 44.644,54.346 C45.061,54.514 45.504,54.602 45.952,54.602 C47.909,54.602 49.501,53.009 49.501,51.051 C49.501,50.605 49.414,50.162 49.246,49.744 C49.461,49.313 49.648,48.865 49.803,48.403 C51.137,47.877 52.052,46.574 52.052,45.101 C52.052,43.627 51.137,42.324 49.803,41.798 C49.648,41.336 49.461,40.888 49.246,40.457 C49.414,40.039 49.501,39.596 49.501,39.15 C49.501,37.192 47.909,35.599 45.952,35.599 C45.505,35.599 45.061,35.687 44.644,35.855 C44.212,35.639 43.764,35.452 43.303,35.298 C42.777,33.964 41.474,33.048 40,33.048 C38.527,33.048 37.224,33.964 36.698,35.298 C36.237,35.452 35.789,35.639 35.357,35.855 C34.94,35.687 34.496,35.599 34.049,35.599 C32.092,35.599 30.499,37.192 30.499,39.15 C30.499,39.596 30.587,40.039 30.755,40.457 C30.539,40.888 30.353,41.336 30.198,41.798 C28.864,42.324 27.949,43.627 27.949,45.101 C27.949,46.574 28.864,47.877 30.198,48.403 C30.353,48.865 30.539,49.313 30.755,49.744 C30.587,50.162 30.499,50.605 30.499,51.051 C30.499,53.009 32.092,54.602 34.049,54.602 L34.049,54.602 Z M44,56 L46,56 L46,66 C46,66.384 45.78,66.735 45.434,66.901 C45.296,66.967 45.148,67 45,67 C44.778,67 44.556,66.925 44.375,66.78 L40,63.28 L35.625,66.78 C35.326,67.021 34.915,67.067 34.567,66.901 C34.221,66.735 34,66.384 34,66 L34,56 L36,56 L36,63.919 L39.375,61.219 C39.741,60.927 40.26,60.927 40.625,61.219 L44,63.919 L44,56 Z M52,16.414 L55.586,20 L52,20 L52,16.414 Z M58.707,20.293 L51.707,13.293 C51.52,13.105 51.266,13 51,13 L22,13 C21.448,13 21,13.447 21,14 L21,60 C21,60.552 21.448,61 22,61 L32,61 L32,59 L23,59 L23,15 L50,15 L50,21 C50,21.552 50.448,22 51,22 L57,22 L57,59 L48,59 L48,61 L58,61 C58.553,61 59,60.552 59,60 L59,21 C59,20.735 58.895,20.48 58.707,20.293 L58.707,20.293 Z" id="AWS-License-Manager_Icon_64_Squid" fill="#FFFFFF"></path>
    </g>
</svg>
